X:63
T:Behind the Haystack
R:jig
Z:id:hn-jig-63
M:6/8
K:D
d2e fdB|d2e fdB|AFE ~E3|AFE EFA|d2e fdB|d2e fdB|AFD ~D3|AFD DFA:|
|:~B3 BAF|ABc dcB|AFE ~E3|AFE EFA|~B3 BAF|ABc dcB|AFD ~D3|1 AFD DFA:|2 AFD D2f||
|:~g3 faf|ede fdB|AFE ~E3|AFE E2f|~g3 faf|ede fdB|AFD ~D3|1 AFD D2f:|2 AFD DFA||
<end>
<start>
